src/assets/icons/text-rich.svg

<svg width="12" height="10" viewBox="0 0 12 10" xmlns="http://www.w3.org/2000/svg">
<path d="M0 2.99995H4V6.99995H0V2.99995ZM0 0.333282H12V1.66662H0V0.333282ZM12 2.99995V4.33328H5.33333V2.99995H12ZM12 5.66662V6.99995H5.33333V5.66662H12ZM0 8.33328H9.33333V9.66662H0V8.33328Z"/>
</svg>

<svg width="12" height="10" xmlns="http://www.w3.org/2000/svg"><path d="M0 3h4v4H0V3zM0 .333h12v1.334H0V.333zM12 3v1.333H5.333V3H12zm0 2.667V7H5.333V5.667H12zM0 8.333h9.333v1.334H0V8.333z"/></svg>
